cash-multiple.svg

<svg fill="currentColor" viewBox="0 0 24 24"><path d="M5 6h18v12H5zm9 3a3 3 0 0 1 3 3 3 3 0 0 1-3 3 3 3 0 0 1-3-3 3 3 0 0 1 3-3M9 8a2 2 0 0 1-2 2v4a2 2 0 0 1 2 2h10a2 2 0 0 1 2-2v-4a2 2 0 0 1-2-2zm-8 2h2v10h16v2H1z"/></svg>

<svg  viewBox="0 0 24 24" fill="currentColor"><path  d="M5,6H23V18H5V6M14,9A3,3 0 0,1 17,12A3,3 0 0,1 14,15A3,3 0 0,1 11,12A3,3 0 0,1 14,9M9,8A2,2 0 0,1 7,10V14A2,2 0 0,1 9,16H19A2,2 0 0,1 21,14V10A2,2 0 0,1 19,8H9M1,10H3V20H19V22H1V10Z"/></svg>
